public/payments/common/payz.svg

<svg width="81" height="25" viewBox="0 0 81 25" fill="none" xmlns="http://www.w3.org/2000/svg">
<mask id="mask0_120_15" style="mask-type:luminance" maskUnits="userSpaceOnUse" x="1" y="2" width="79" height="21">
<path d="M79.628 2.53239H1.37195V22.4666H79.628V2.53239Z" fill="white"/>
</mask>
<g mask="url(#mask0_120_15)">
<path d="M11.7461 10.2223V10.0041C11.7461 7.49364 10.657 6.29398 8.94192 6.29398C7.22675 6.29398 6.1103 7.57602 6.1103 9.97659V10.1949C6.1103 12.623 7.17197 13.8514 8.94192 13.8514C10.7118 13.8514 11.7461 12.5693 11.7461 10.2223ZM10.6844 2.61012C14.0063 2.61012 16.7023 5.12045 16.7023 10.0041V10.2223C16.7023 15.1333 14.0063 17.5889 10.657 17.5889C8.5063 17.5889 6.95422 16.58 6.24594 15.1608V22.0359H1.37195V2.99171H6.24594V5.11921C7.06241 3.75614 8.53374 2.61012 10.6844 2.61012Z" fill="white"/>
<path d="M28.3349 10.1172V9.89898C28.3349 7.41602 27.3005 6.21637 25.6663 6.21637C23.9512 6.21637 22.943 7.44341 22.943 9.92636V10.1447C22.943 12.5452 23.9773 13.7736 25.5841 13.7736C27.191 13.7736 28.3349 12.5466 28.3349 10.1172ZM17.9868 10.1995V9.98125C17.9881 5.12386 20.7649 2.53239 23.9512 2.53239C26.102 2.53239 27.3828 3.46023 28.1992 4.90557V2.91398H33.0732V17.1832H28.1992V14.891C27.4636 16.3376 25.9663 17.5099 23.9238 17.5099C20.7649 17.5099 17.9881 15.1367 17.9881 10.1982" fill="white"/>
<path d="M42.8219 10.6041L45.5452 2.99182H50.2014L42.5767 22.0361H37.9204L40.2902 15.8157L34.5984 2.99182H39.8807L42.8219 10.6041Z" fill="white"/>
<path d="M50.4526 17.261V13.879L56.9336 6.6758H51.243L51.2157 2.99182H62.6241V6.59341L56.4157 13.5509H63.0871V17.261H50.4526Z" fill="white"/>
<path d="M65.3855 15.346C65.4429 11.4165 68.4128 8.19647 72.4494 8.19647C76.4862 8.19647 79.6281 11.4165 79.6281 15.346C79.6281 19.2757 76.5723 22.4669 72.4494 22.4669C68.3267 22.4669 65.3855 19.3057 65.3855 15.346Z" fill="#D0FA02"/>
</g>
</svg>

<svg xmlns="http://www.w3.org/2000/svg" width="81" height="25" fill="none"><mask id="a" width="79" height="21" x="1" y="2" maskUnits="userSpaceOnUse" style="mask-type:luminance"><path fill="#fff" d="M79.63 2.53H1.37v19.94h78.26V2.53Z"/></mask><g mask="url(#a)"><path fill="#fff" d="M11.75 10.22V10c0-2.5-1.1-3.7-2.8-3.7-1.72 0-2.84 1.28-2.84 3.68v.21c0 2.43 1.06 3.66 2.83 3.66s2.8-1.28 2.8-3.63Zm-1.07-7.61c3.33 0 6.02 2.51 6.02 7.4v.21c0 4.91-2.7 7.37-6.04 7.37-2.15 0-3.7-1.01-4.41-2.43v6.88H1.37V2.99h4.88v2.13a5.03 5.03 0 0 1 4.43-2.51ZM28.33 10.12V9.9c0-2.48-1.03-3.68-2.66-3.68-1.72 0-2.73 1.22-2.73 3.7v.22c0 2.4 1.04 3.63 2.64 3.63 1.61 0 2.75-1.22 2.75-3.65ZM18 10.2v-.22c0-4.86 2.77-7.45 5.96-7.45 2.15 0 3.43.93 4.25 2.38v-2h4.87v14.27H28.2V14.9a4.72 4.72 0 0 1-4.28 2.62c-3.16 0-5.93-2.37-5.93-7.31M42.82 10.6 45.55 3h4.65l-7.62 19.04h-4.66l2.37-6.22-5.7-12.83h5.3l2.93 7.61ZM50.45 17.26v-3.38l6.48-7.2h-5.69l-.02-3.69h11.4v3.6l-6.2 6.96h6.67v3.71H50.45Z"/><path fill="#D0FA02" d="M65.39 15.35a7.07 7.07 0 0 1 7.06-7.15 7.13 7.13 0 0 1 7.18 7.15 7.05 7.05 0 0 1-7.18 7.12 6.94 6.94 0 0 1-7.06-7.12Z"/></g></svg>
